X:1
T: The Jockey Club
C:
R:Reel
Q: 232
K:D
M:4/4
L:1/8
|:g|f2 df ec Ac|dB AF GE Eg|f2 df ec Ac|dB AG FD Dg|
f2 df ec Ac|d1/2c1/2B1/2A1/2 dF GE EG|FA BG Ac df|ge ag fd dA|
FA DF GB EG|FA DF EA, A,G|FA DF GB Eg|fd ec dD DA|
FA DF GB EG|FA DF EA, A,G|FA BG Ac df|gb ag fd d:|
